X:1
T:Waiting for Thy Coming
T:Waiting for Thy Coming
T:Ira David Sankey
T:Frances Jane (Fanny) Crosby, 1899
T:Public Domain Courtesy of the Cyber Hymnal™
C:Ira David Sankey
Z:Public Domain
Z:Courtesy of the Cyber Hymnal™
%%score ( 1 2 ) ( 3 4 )
L:1/8
Q:1/4=100
M:4/4
K:Ab
V:1 treble 
V:2 treble 
V:3 bass 
V:4 bass 
V:1
 [Ec]3 [DB] [Fd][Ec][EB][EA] | [EA]4 [EG]2 z2 | [GB]3 A [EG][Ed] [Ec]>[EB] | [Ec]6 z2 | %4
w: 1.~We are wait- ing, bless- èd|Sav- ior,|We are watch- ing for the|hour|
w: 2.~We are wait- ing, bless- èd|Sav- ior,|We are watch- ing not in|vain|
w: 3.~We are wait- ing, bless- èd|Sav- ior,|For a un- ion, heart to|heart,|
 [Ec]3 [DB] [Fd][Ec][EB][EA] | [EA]4 [EG]2 z2 | [GB]3 A [EG][Fd] [Ec]>[DB] | [CA]6 z2 | %8
w: When in ma- jes- ty de-|scend- ing,|Thou shalt come in might- y|power;|
w: For the cloud that bore Thee|up- ward,|And will bring Thee back a-|gain.|
w: With our dear ones o’er the|riv- er,|Where we nev- er- more shall|part;|
 [DB]3 [D=A] [DB]E[Ee][Ed] | [Ec]4 [CA]2 z2 | [Ec]3 [=EB] [FA][EA] [=DB]>[Dc] | (B4 e2 d2) | %12
w: Then the sha- dows will be|lift- ed,|And the dark- ness rolled a-|way, * *|
w: Then, a- mong Thy ran- somed|peo- ple,|We shall tread the shin- ing|way, * *|
w: Then our sor- rows, in a|mo- ment,|Like a dream will pass a-|way, * *|
 [Ec]3 [DB] [Fd][Ec][EB][EA] | [FA]4 [Fd]2 z2 | [Ec]3 [Ed] [Ec][EB] [EA]>[EG] | [EA]6 z2 |] %16
w: And our eyes be- hold the|splen- dor|Of the glor- ious crown- ing|day.|
w: And our eyes be- hold the|splen- dor|Of the glor- ious crown- ing|day.|
w: When our eyes be- hold the|splen- dor|Of the glor- ious crown- ing|day.|
V:2
 x8 | x8 | x3 A x4 | x8 | x8 | x8 | x3 A x4 | x8 | x5 E x2 | x8 | x8 | E8 | x8 | x8 | x8 | x8 |] %16
V:3
 [A,,A,]3 [A,,A,] [A,,A,][A,,A,][B,,G,][C,A,] | [E,C]4 [E,B,]2 z2 | %2
 [E,D]3 [E,C] [E,B,][G,B,] A,>[E,G,] | [A,,A,]6 z2 | [A,,A,]3 [A,,A,] [A,,A,][A,,A,][B,,G,][C,A,] | %5
 [E,C]4 [E,B,]2 z2 | [E,D]3 [E,C] [E,B,][E,G,] [E,G,]>[E,G,] | [A,,A,]6 z2 | %8
 [E,G,]3 [E,G,] [E,G,][E,G,][F,A,][G,B,] | A,4 [A,,A,]2 z2 | A,3 [G,C] [F,C][F,C] [B,,A,]>[B,,A,] | %11
 ([B,,G,]4 [F,A,]2 [G,B,]2) | A,3 [D,A,] [C,A,][E,A,][B,,G,][C,A,] | [D,A,]4 [D,A,]2 z2 | %14
 [E,A,]3 [E,B,] [D,A,][E,D] [E,C]>[E,B,] | [A,,C]6 z2 |] %16
V:4
 x8 | x8 | x6 A,3/2 x/ | x8 | x8 | x8 | x8 | x8 | x8 | A,4 x4 | A,3 x5 | x8 | A,3 x5 | x8 | x8 | %15
 x8 |] %16

